build/img/section4-card-3.svg

<svg width="57" height="57" viewBox="0 0 57 57" fill="none" xmlns="http://www.w3.org/2000/svg">
<path d="M31.7838 39.6217H25.2266V42.8168H31.7838V39.6217Z" fill="#E6E6E6"/>
<path d="M27.3867 54.7735H29.6133V53.6602H39.0762V50.4651H17.9238V53.6602H27.3867V54.7735Z" fill="#E6E6E6"/>
<path d="M46.168 16.3318H47.2812V8.71692H51.5674V23.0114H46.168V16.3318Z" fill="#E6E6E6"/>
<path d="M10.833 16.3318H9.71973V8.71692H5.43359V23.0114H10.833V16.3318Z" fill="#E6E6E6"/>
<path d="M31.6514 20.6625L33.6107 26.6631L28.5008 22.9559L23.3908 26.6631L25.3502 20.6625L20.2402 16.9553H26.5525L28.5008 10.9547L30.449 16.9553H36.7613L31.6514 20.6625Z" fill="#69C9C9"/>
<path d="M43.609 14.7288H32.0643L28.5018 3.75183L24.9393 14.7288H13.3945L22.735 21.5198L19.1725 32.4968L28.5129 25.7057L37.8533 32.4968L34.2908 21.5198L43.609 14.7288ZM28.5018 22.9559L23.3918 26.6632L25.34 20.6626L20.2301 16.9553H26.5424L28.5018 10.9548L30.45 16.9553H36.7623L31.6523 20.6626L33.6006 26.6632L28.5018 22.9559Z" fill="#4D5152"/>
<path d="M11.9453 18.5585H9.71875V20.785H11.9453V18.5585Z" fill="#4D5152"/>
<path d="M47.2812 18.5585H45.0547V20.785H47.2812V18.5585Z" fill="#4D5152"/>
<path d="M47.2818 6.49043V1.11328H9.71973V6.49043H3.20703V25.2381H9.71973V29.8805L17.123 39.6217H23.0012V42.8168H20.5742V48.2385H15.698V55.8867H27.3875V53.6602H17.9246V50.465H39.077V53.6602H29.6141V55.8867H41.3035V48.2385H36.4385V42.8168H34.0115V39.6217H39.8896L47.293 29.8805V25.2381H53.8057V6.49043H47.2818ZM34.2008 48.2385H22.8008V45.0434H34.2119V48.2385H34.2008ZM31.7738 42.8168H25.2166V39.6217H31.7738V42.8168ZM51.568 23.0115H45.0553V29.1234L38.7764 37.384H18.2252L11.9463 29.1234V23.0115H5.43359V8.71699H9.71973V16.3318H11.9463V3.33984H45.0441V16.3318H47.2707V8.71699H51.5568V23.0115H51.568Z" fill="#4D5152"/>
</svg>

<svg width="57" height="57" viewBox="0 0 57 57" fill="none" xmlns="http://www.w3.org/2000/svg"><path d="M31.784 39.622h-6.557v3.195h6.557v-3.195zm-4.397 15.151h2.226V53.66h9.463v-3.195H17.924v3.195h9.463v1.114zm18.781-38.441h1.113V8.717h4.286V23.01h-5.399v-6.68zm-35.335 0H9.72V8.717H5.434V23.01h5.399v-6.68z" fill="#E6E6E6"/><path d="M31.651 20.663l1.96 6-5.11-3.707-5.11 3.707 1.96-6-5.11-3.708h6.311l1.949-6 1.948 6h6.312l-5.11 3.708z" fill="#69C9C9"/><path d="M43.609 14.729H32.064L28.502 3.752l-3.563 10.977H13.395l9.34 6.79-3.563 10.978 9.34-6.791 9.341 6.79-3.562-10.976 9.318-6.791zm-15.107 8.227l-5.11 3.707 1.948-6-5.11-3.708h6.312l1.96-6 1.948 6h6.312l-5.11 3.708 1.949 6-5.1-3.707zm-16.557-4.398H9.72v2.227h2.226v-2.227zm35.336 0h-2.226v2.227h2.226v-2.227z" fill="#4D5152"/><path d="M47.282 6.49V1.113H9.72V6.49H3.207v18.748H9.72v4.643l7.403 9.74h5.878v3.196h-2.427v5.422h-4.876v7.648h11.69V53.66h-9.463v-3.195h21.152v3.195h-9.463v2.227h11.69v-7.648h-4.866v-5.422h-2.427v-3.195h5.879l7.403-9.741v-4.643h6.513V6.49h-6.524zM34.2 48.238H22.8v-3.195h11.41v3.196h-.01zm-2.427-5.421h-6.557v-3.195h6.557v3.195zm19.794-19.805h-6.513v6.111l-6.279 8.261h-20.55l-6.28-8.26v-6.112H5.434V8.717H9.72v7.615h2.226V3.34h33.098v12.992h2.227V8.717h4.286v14.295h.011z" fill="#4D5152"/></svg>
